X: 38629
T: Stop, The
R: reel
M: 4/4
K: Dmajor
|:efed B2dB|Acec dfag|efed B2dB|1 Acec dA~A2:|2 Acec defa||
|:bagf eAce|agfe fdcd|1 fdad gB~B2|Acec defa:|2 fdad bagf|eAce d2z2||

